public/img/13.svg

<svg width="326" height="275" viewBox="0 0 326 275" fill="none" xmlns="http://www.w3.org/2000/svg">
<g opacity="0.7">
<g clip-path="url(#clip0)">
<mask id="mask0" mask-type="alpha" maskUnits="userSpaceOnUse" x="-9" y="-71" width="535" height="535">
<path fill-rule="evenodd" clip-rule="evenodd" d="M83.4018 171.282C80.5766 179.59 78.2606 188.048 76.4239 196.488L185.305 88.7548C183.284 88.7233 181.261 88.6735 179.241 88.6238C175.943 88.5427 172.652 88.4617 169.386 88.4609L83.4018 171.282ZM92.4308 149.034L152.109 89.6954C143.629 91.173 135.541 94.2953 128.177 100.656C113.065 113.707 101.278 130.546 92.4308 149.034ZM197.054 88.5955L73.2088 214.47C72.4024 220.058 71.6837 225.733 71.0945 231.44L219.46 83.9344C212.259 86.9673 204.719 88.1774 197.054 88.5955ZM256.206 47.4022L324.748 -20.7423C321.681 -20.6628 318.553 -20.2931 315.363 -19.6041C293.12 -14.7991 279.755 7.87222 266.004 31.1987C262.798 36.637 259.571 42.1108 256.206 47.4022ZM336.854 -19.5422L70.0406 243.775C69.6055 250.306 69.3778 256.832 69.4191 263.275L343.249 -17.665C341.154 -18.4232 339.022 -19.0531 336.854 -19.5422ZM350.99 -14.2109L69.8221 275.162C70.0147 278.206 70.2788 281.219 70.6213 284.194L362.273 -6.78C358.662 -9.62704 354.899 -12.1346 350.99 -14.2109ZM365.996 -3.68215L72.2709 295.062C73.1121 299.46 74.1587 303.741 75.4356 307.873L377.318 7.81439C373.746 3.67651 369.969 -0.200213 365.996 -3.68215ZM386.335 19.3455L78.338 316.013C80.2749 320.758 82.5748 325.255 85.2823 329.446L391.294 26.6615C389.703 24.1956 388.049 21.7502 386.335 19.3455ZM394.413 31.6435L92.3609 338.645C92.5058 338.804 92.6515 338.961 92.798 339.118C94.8927 341.364 97.1103 343.429 99.4385 345.322L401.765 44.7482C401.394 43.9825 401.006 43.2231 400.601 42.4705C398.673 38.8895 396.609 35.2595 394.413 31.6435ZM404.852 52.3552L104.17 348.837C108.508 351.776 113.162 354.207 118.065 356.183L406.822 59.4214C406.276 57.0226 405.624 54.6655 404.852 52.3552ZM408.392 68.4828L126.591 359.104C129.252 359.866 131.969 360.516 134.732 361.061L409.354 87.1236C409.389 80.7573 409.143 74.518 408.392 68.4828ZM409.2 94.541L145.351 362.631C150.092 363.114 154.929 363.334 159.82 363.325L408.035 116.522C408.129 114.891 408.227 113.262 408.324 111.634C408.667 105.896 409.009 100.181 409.2 94.541ZM407.278 136.23L171.997 362.856C179.639 362.295 187.33 361.255 194.916 359.857L407.628 149.389C407.338 145.049 407.244 140.655 407.278 136.23ZM408.561 158.033L214.862 354.906C229.468 349.036 241.544 336.267 253.71 323.402C266.186 310.209 278.757 296.916 294.248 290.862L412.119 173.674C410.614 168.437 409.369 163.215 408.561 158.033ZM415.164 183.406L310.106 287.088C315.027 286.555 320.029 286.515 325.067 286.785L417.959 191.481C417.005 188.792 416.065 186.099 415.164 183.406ZM423.974 208.455L345.577 289.14C347.618 289.455 349.656 289.781 351.688 290.107C353.664 290.423 355.635 290.738 357.596 291.042L427.886 220.915C426.736 216.795 425.4 212.638 423.974 208.455ZM430.1 229.997L368.589 292.559C375.049 293.297 381.353 293.665 387.4 293.245L431.71 249.202C432.1 242.96 431.431 236.54 430.1 229.997Z" fill="white"/>
</mask>
<g mask="url(#mask0)">
<path d="M136.719 109.636H119.524V83.7531H168.394V185.113H188.666V210.453H116.99V185.113H136.719V109.636ZM201.442 171.9H230.402C230.402 175.882 231.669 178.959 234.203 181.131C236.737 183.303 240.176 184.389 244.52 184.389C248.864 184.389 252.243 183.001 254.656 180.226C257.19 177.33 258.518 173.65 258.638 169.185C258.518 164.6 257.432 160.919 255.38 158.144C253.45 155.369 250.916 153.619 247.778 152.895C244.762 152.05 241.323 151.568 237.461 151.447C233.721 151.206 230.04 151.387 226.42 151.99V147.827L245.244 110.541H206.329V83.7531H287.055V88.4591L263.887 131.175C281.143 135.76 289.77 148.37 289.77 169.004C289.77 180.709 285.788 190.965 277.824 199.774C269.86 208.462 258.94 212.806 245.063 212.806C232.514 212.806 222.137 209.126 213.931 201.765C205.847 194.284 201.684 184.329 201.442 171.9Z" fill="white"/>
</g>
</g>
</g>
<defs>
<clipPath id="clip0">
<rect x="0.484375" width="325.24" height="274.079" fill="white"/>
</clipPath>
</defs>
</svg>

<svg width="326" height="275" fill="none" xmlns="http://www.w3.org/2000/svg"><g clip-path="url(#clip0)" opacity=".7"><mask id="a" maskUnits="userSpaceOnUse" x="-9" y="-71" width="535" height="535"><path fill-rule="evenodd" clip-rule="evenodd" d="M83.402 171.282c-2.825 8.308-5.141 16.766-6.978 25.206L185.305 88.755a680.628 680.628 0 01-6.064-.131c-3.298-.081-6.589-.162-9.855-.163l-85.984 82.821zm9.029-22.248l59.678-59.339c-8.48 1.478-16.568 4.6-23.932 10.961-15.112 13.051-26.899 29.89-35.746 48.378zm104.623-60.438L73.209 214.47a423.426 423.426 0 00-2.115 16.97L219.46 83.934c-7.201 3.033-14.741 4.243-22.406 4.662zm59.152-41.194l68.542-68.144a50.57 50.57 0 00-9.385 1.138C293.12-14.8 279.755 7.872 266.004 31.199c-3.206 5.438-6.433 10.912-9.798 16.203zm80.648-66.944L70.041 243.775c-.435 6.531-.663 13.057-.622 19.5l273.83-280.94a53.167 53.167 0 00-6.395-1.877zm14.136 5.331L69.822 275.162c.193 3.044.457 6.057.8 9.032L362.272-6.78c-3.611-2.847-7.374-5.355-11.283-7.43zm15.006 10.529L72.271 295.062c.841 4.398 1.888 8.679 3.165 12.811L377.318 7.814c-3.572-4.137-7.349-8.014-11.322-11.496zm20.339 23.027L78.338 316.014c1.937 4.745 4.237 9.242 6.944 13.433L391.294 26.661a191.27 191.27 0 00-4.959-7.316zm8.078 12.299l-302.052 307a66.037 66.037 0 007.078 6.677L401.764 44.748a60.192 60.192 0 00-1.164-2.277 240.777 240.777 0 00-6.188-10.827zm10.439 20.711L104.17 348.837c4.338 2.939 8.992 5.37 13.895 7.346L406.822 59.421a74.33 74.33 0 00-1.97-7.066zm3.54 16.128L126.591 359.104a99.555 99.555 0 008.141 1.957L409.354 87.124c.035-6.367-.211-12.606-.962-18.641zm.808 26.058l-263.849 268.09c4.741.483 9.578.703 14.469.694l248.215-246.803c.094-1.631.192-3.26.289-4.888.343-5.738.685-11.453.876-17.093zm-1.922 41.689L171.997 362.856c7.642-.561 15.333-1.601 22.919-2.999l212.712-210.468c-.29-4.34-.384-8.734-.35-13.159zm1.283 21.803L214.862 354.906c14.606-5.87 26.682-18.639 38.848-31.504 12.476-13.193 25.047-26.486 40.538-32.54l117.871-117.188c-1.505-5.237-2.75-10.459-3.558-15.641zm6.603 25.373L310.106 287.088c4.921-.533 9.923-.573 14.961-.303l92.892-95.304a473.6 473.6 0 01-2.795-8.075zm8.81 25.049l-78.397 80.685c2.041.315 4.079.641 6.111.967 1.976.316 3.947.631 5.908.935l70.29-70.127c-1.15-4.12-2.486-8.277-3.912-12.46zm6.126 21.542l-61.511 62.562c6.46.738 12.764 1.106 18.811.686l44.31-44.043c.39-6.242-.279-12.662-1.61-19.205z" fill="#fff"/></mask><g mask="url(#a)"><path d="M136.719 109.636h-17.195V83.753h48.87v101.36h20.272v25.34H116.99v-25.34h19.729v-75.477zm64.723 62.264h28.96c0 3.982 1.267 7.059 3.801 9.231 2.534 2.172 5.973 3.258 10.317 3.258s7.723-1.388 10.136-4.163c2.534-2.896 3.862-6.576 3.982-11.041-.12-4.585-1.206-8.266-3.258-11.041-1.93-2.775-4.464-4.525-7.602-5.249-3.016-.845-6.455-1.327-10.317-1.448a48.142 48.142 0 00-11.041.543v-4.163l18.824-37.286h-38.915V83.753h80.726v4.706l-23.168 42.716c17.256 4.585 25.883 17.195 25.883 37.829 0 11.705-3.982 21.961-11.946 30.77-7.964 8.688-18.884 13.032-32.761 13.032-12.549 0-22.926-3.68-31.132-11.041-8.084-7.481-12.247-17.436-12.489-29.865z" fill="#fff"/></g></g><defs><clipPath id="clip0"><path fill="#fff" d="M.484 0h325.24v274.079H.484z"/></clipPath></defs></svg>
